X: 38667
T: Strange Drums, The
R: mazurka
M: 3/4
K: Dmajor
|:~F3 E FA|~F3 E FA|~E3 D EF|E2 DE FA|
~F3 E FA|~F3 E FA|~d2A d2e|1 efe dBA:|2 efA Bde||
|:~f2e f2e|d2A Bde|~f2e f2e|dBA BFA|
~f2e f2e|d2B ABF|~E3 DEF|1 ~E2A Bde:|2 ~E2D EFA||

